X:449
%%etbk:tnset id:140,pos:1,rep:3x,ant:
%%etbk:pldat 2015-03-24T17:02,2014-12-06T16:57,2014-04-30T15:38,2014-02-10T18:10,2013-11-20T15:20,2013-11-19T16:24,2013-10-07T18:45,2013-09-12T17:56,2013-09-11T19:17,2013-08-26T18:53,2013-05-05T14:46
T: Dark Island, The
Z: Piano Box Version by Martin Fleischmann
H: Created 2013-02-19 /  Last Modified 2013-02-19
R: waltz
M: 3/4
L: 1/4
K: Ador
E |: "am"!4!A>BA| "em"!3!G>AG | "C"!2!E<!1!CE | "G"!1!D2 !2!G/A/ | !4!B>AG | "bm"!4!B<!5!d!1!D | "em"!4!B2 !5!d/!4!B/ | "D"!3!A2 E | 
 "am"!4!A>BA| "em"!3!G>AG | "C"!2!E<!1!CE | "G"!1!D2 !2!G/A/ | !4!B2 !5!d/B/ | "D"!3!A2 B/A/ | "C"!2!!3!G>AG | "G"!3!G3 :| 
D |: "G"!5!d>!1!DD | !5!B !4!A !3!G | "C"!2!E<!1!CE | "G"!1!D2 !2!G/A/ | !4!B>AG | "bm"!4!B<!5!d!1!D | "em"!4!B2 !5!d/!4!B/ | "D"!3!A2 E | 
 "am"!4!A>BA| "em"!3!G>AG | "C"!2!E<!1!CE | "G"!1!D2 !2!G/A/ | !4!B2 !5!d/B/ | "D"!3!A2 B/A/ | "C"!2!!3!G>AG | "G"!3!G3 :| 


